flaticon/gastronomy/radish.svg

<svg xmlns="http://www.w3.org/2000/svg" width="32" height="32" viewBox="0 0 24 24">
    <path d="M 13.761719 8.199219 C 13.777344 8.105469 13.761719 8.007812 13.710938 7.921875 C 13.109375 6.953125 12.957031 4.875 12.957031 4.851562 C 12.941406 4.628906 12.746094 4.460938 12.523438 4.476562 C 12.296875 4.492188 12.128906 4.6875 12.144531 4.910156 C 12.152344 4.996094 12.292969 6.957031 12.898438 8.136719 C 12.894531 8.136719 12.886719 8.136719 12.878906 8.136719 C 12.050781 8.167969 6.761719 8.542969 6.449219 12.972656 C 6.277344 15.4375 6.832031 16.691406 8.828125 18.332031 C 11.257812 20.335938 12.339844 21.316406 12.578125 23.636719 C 12.601562 23.84375 12.773438 24 12.984375 24 C 13.191406 24 13.367188 23.84375 13.390625 23.632812 C 13.617188 21.394531 14.648438 20.355469 16.742188 18.617188 C 16.742188 18.617188 16.746094 18.617188 16.746094 18.617188 L 16.828125 18.546875 C 16.914062 18.476562 17 18.40625 17.089844 18.332031 C 19.082031 16.691406 19.636719 15.4375 19.464844 12.972656 C 19.203125 9.269531 15.464844 8.402344 13.761719 8.199219 Z M 12.980469 21.789062 C 12.441406 20.425781 11.425781 19.445312 9.898438 18.167969 C 10.800781 16.949219 11.875 16.277344 12.957031 16.277344 C 14.039062 16.277344 15.113281 16.945312 16.015625 18.164062 C 14.507812 19.429688 13.507812 20.402344 12.980469 21.789062 Z M 16.640625 17.644531 C 15.585938 16.238281 14.292969 15.460938 12.957031 15.460938 C 11.625 15.460938 10.332031 16.238281 9.273438 17.648438 C 7.546875 16.207031 7.109375 15.199219 7.261719 13.03125 C 7.378906 11.359375 8.355469 10.167969 10.164062 9.488281 C 11.457031 9 12.746094 8.953125 12.957031 8.949219 C 13.171875 8.953125 14.457031 9 15.753906 9.488281 C 17.558594 10.167969 18.535156 11.359375 18.652344 13.03125 C 18.804688 15.195312 18.371094 16.203125 16.640625 17.644531 Z M 16.640625 17.644531"/>
    <path d="M9.789062 7.421875L11.820312 6.996094C11.945312 6.96875 12.050781 6.886719 12.105469 6.769531 12.160156 6.652344 12.15625 6.515625 12.09375 6.402344L11.09375 4.582031C9.945312 2.488281 7.601562 1.410156 5.265625 1.898438L3.230469 2.324219C3.105469 2.347656 3 2.433594 2.945312 2.550781 2.890625 2.667969 2.894531 2.804688 2.957031 2.917969L3.957031 4.738281C4.921875 6.496094 6.726562 7.539062 8.664062 7.539062 9.035156 7.539062 9.410156 7.5 9.789062 7.421875zM4.667969 4.347656L3.933594 3.007812 5.429688 2.695312C7.417969 2.277344 9.40625 3.195312 10.382812 4.972656L11.117188 6.3125 9.621094 6.625C7.636719 7.042969 5.644531 6.125 4.667969 4.347656zM20.972656.121094C20.882812.0273438 20.753906-.015625 20.625.00390625L18.570312.308594C16.207031.664062 14.386719 2.484375 14.03125 4.847656L13.726562 6.902344C13.707031 7.03125 13.75 7.160156 13.84375 7.25 13.917969 7.328125 14.023438 7.371094 14.128906 7.371094 14.148438 7.371094 14.167969 7.367188 14.1875 7.367188L16.242188 7.058594C18.605469 6.707031 20.429688 4.882812 20.78125 2.519531L21.089844.464844C21.105469.339844 21.066406.210938 20.972656.121094zM19.976562 2.402344C19.679688 4.40625 18.128906 5.957031 16.125 6.253906L14.613281 6.480469 14.839844 4.96875C15.136719 2.964844 16.6875 1.414062 18.691406 1.117188L20.203125.890625zM19.976562 2.402344"/>
</svg>

<svg xmlns="http://www.w3.org/2000/svg" width="32" height="32" viewBox="0 0 24 24">
    <path d="M13.762 8.2a.41.41 0 0 0-.051-.278c-.602-.969-.754-3.047-.754-3.07a.407.407 0 1 0-.813.059c.008.085.149 2.046.754 3.226h-.02c-.827.031-6.116.406-6.429 4.836-.172 2.464.383 3.718 2.38 5.359 2.429 2.004 3.51 2.984 3.75 5.305a.407.407 0 0 0 .405.363.41.41 0 0 0 .407-.367c.226-2.238 1.257-3.278 3.351-5.016h.004l.082-.07.262-.215c1.992-1.64 2.547-2.895 2.375-5.36-.262-3.702-4-4.57-5.703-4.773zm-.782 13.59c-.539-1.364-1.554-2.345-3.082-3.622.903-1.219 1.977-1.89 3.059-1.89s2.156.667 3.059 1.886c-1.508 1.266-2.508 2.238-3.036 3.625zm3.66-4.145c-1.054-1.407-2.347-2.184-3.683-2.184-1.332 0-2.625.777-3.684 2.187-1.726-1.441-2.164-2.449-2.011-4.617.117-1.672 1.093-2.863 2.902-3.543a9.107 9.107 0 0 1 2.793-.539c.215.004 1.5.051 2.797.54 1.805.679 2.781 1.87 2.898 3.542.153 2.164-.28 3.172-2.011 4.614zm0 0"/>
    <path d="M9.79 7.422l2.03-.426a.409.409 0 0 0 .274-.594l-1-1.82a5.361 5.361 0 0 0-5.828-2.684l-2.036.426a.4.4 0 0 0-.285.227.406.406 0 0 0 .012.367l1 1.82a5.356 5.356 0 0 0 5.832 2.684zM4.667 4.348l-.734-1.34 1.496-.313a4.552 4.552 0 0 1 4.953 2.278l.734 1.34-1.496.312a4.554 4.554 0 0 1-4.953-2.277zm0 0M20.973.121a.397.397 0 0 0-.348-.117L18.57.309a5.37 5.37 0 0 0-4.539 4.539l-.304 2.054a.397.397 0 0 0 .117.348c.074.078.18.121.285.121.02 0 .039-.004.059-.004l2.054-.308a5.361 5.361 0 0 0 4.54-4.54L21.09.466a.404.404 0 0 0-.117-.344zm-.996 2.281a4.55 4.55 0 0 1-3.852 3.852l-1.512.226.227-1.511a4.55 4.55 0 0 1 3.851-3.852l1.512-.226zm0 0"/>
</svg>
